!!!OTL: 890b. Die junge Schnur und die alte Schwieger.
!!!ARE: Europa, Mitteleuropa, Deutschland, Hessen, Darmstadt
!!!SCT: E0890A
!!!TXL: @@DE
!!!YEM: Copyright 1995, estate of Helmut Schaffrath.
**kern	**text
*ICvox	*
*M3/4	*
*k[f#]	*
*G:	*
!LO:TX:a:t=Mäßig.	!
!LO:TX:a:t=Aus der Gegend von Darmſtadt.	!
{8.g	Gelt,
16b	du
=1	=1
4dd	willſt
4dd	mein
4dd	Sohn
=2	=2
4b	ha-
4g}	-ben?
{8.b	ſprach
16dd	die
=3	=3
8ddL	al-
8ccJ	.
4a	-te
4dd^^	Schwie-
=4	=4
4b	-ger
4r}	.
{8.g	Gelt,
16b	du
=5	=5
4dd	willſt
4dd	mein
4dd	Sohn
=6	=6
4b	ha-
4g}	-ben?
{8.b	ſprach
16dd	die
=7	=7
8ddL	al-
8ccJ	.
4a	-te
4dd^^	Schwie-
=8	=8
4b	-ger
4r}	.
{8b	Ja,
8dd	ich
=9	=9
8dd	will
8cc	ihn
8cc	ha-
8cc	-ben,
8a	ja
8cc	ich
=10	=10
8cc	muß
8b	ihn
8b	ha-
8b}	-ben,
{8.g	ſprach
16b	die
=11	=11
4dd	Jung
4b	gleich
4a^^	wie-
=12	=12
4g	-der.
4r}	.
{8b	Ja,
8dd	ich
=13	=13
8dd	will
8cc	ihn
8cc	ha-
8cc	-ben,
8a	ja
8cc	ich
=14	=14
8cc	muß
8b	ihn
8b	ha-
8b}	-ben,
{8.g	ſprach
16b	die
=15	=15
4dd	Jung
4b	gleich
4a^^	wie-
=16	=16
4g	-der.
4r}	.
==	==
!!!AGN: Hochzeits -, Ehestands - Lied, Scherz - Lied, Bettelhochzeit
!!!ONB: ESAC (Essen Associative Code) Database: ERK2
!!!AMT: simple triple
!!!AIN: vox
!!!EED: Helmut Schaffrath
!!!EEV: 1.0
!!!GTL: Hochzeits- und Ehrstandslieder, nebst Nonnenklagen
!!!URL-scan: https://rosdok.uni-rostock.de/mcrviewer/recordIdentifier/rosdok_ppn745177662/iview2/phys_0687.iview2?x=193.8995864193107&y=1231.7872122409754&scale=0.7029437510502773&rotation=0&layout=singlePageLayout
!!!ENC: Anna Maria Matuszewska
!!!EEV: 2024/12/18
*-	*-
